X: 33464
T: Rachel Dafydd Ifan
R: polka
M: 2/4
K: Gmajor
|:D/G/|BB Bc|d/e/d/c/ B/c/d|AA AB|c/d/c/B/ cD/G/|
B (3B/B/B/ Bc|dd/c/ Bd|c/d/c/A/ F/A/d/c/|BG G:|
|:d|g>g gd|d/e/d/c/ Bd|g (3g/g/g/ gd|c/d/c/B/ A (3d/e/f/|
g>g gd|d/e/d/c/ B/c/d/B/|cc/A/ Fd/c/|B/A/G/F/ G:|

